X: 156
T: Do you want your old lobby washed down
M:3/4
R:waltz
L:1/8
Z:added by Alf warnock alf0@rogers.com - www.alfwarnock.info/alfs
K:C
F2| "C"G2 E2 D2| C2 E2 G2| "F"A2 F2 F2| F4 A,2|\
"G7"G,2 G2 G2| D2 E2 F2| "C"E6-|E4 G2|
"C"G2 E2 D2| C2 E2 G2| "F"A2 F2 F2| F4 A,2|\
"G7"G,2 G2 G2| F2 E2 D2| "C"C6-|C4 E2|
"Dm"E2 D2 D2| D2 E2 F2| "C"F2 E2 D2| E2 G2 G2|\
"D7"^F2 ^F2 ^F2| D2 E2 ^F2| "G7"G6-|G4 G2|
"C"G2 E2 D2| C2 E2 G2| "F"A2 F2 F2| F4 A,2|\
"G7"G,2 G2 G2| F2 E2 D2| "C"C6-|C6|
P:Chorus
"C"G2 E2 D2| C2 E2 G2| "F"A4 F2| F4 A,2|\
"G7"G,2 G2 G2| D2 E2 F2| "C"E6-|E4 G2|
"C"G2 E2 D2| C2 E2 G2| "F"A2 F2 F2| F4 A,2|\
"G7"G,2 G2 G2| F2 E2 D2| "C"C6-|C4 E2|

